packages/foundations/assets/icons/functional/images/technology/wifi_disabled_28.svg

<svg width="28" height="28" viewBox="0 0 28 28" fill="none" xmlns="http://www.w3.org/2000/svg">
<g clip-path="url(#clip0_187_656)">
<path fill-rule="evenodd" clip-rule="evenodd" d="M24.2437 3.75628C24.5591 4.0717 24.618 4.61917 24.2437 4.99372C17.8288 11.4118 11.4122 17.8285 4.99372 24.2437C4.65201 24.5854 4.09799 24.5854 3.75628 24.2437C3.44086 23.9283 3.39846 23.3678 3.75628 23.0063C5.36995 21.3893 6.98538 19.7737 8.60256 18.1595C8.41115 17.993 8.2852 17.7455 8.2852 17.4727C8.2852 17.3086 8.3398 17.1577 8.44515 17.005C9.479 15.5049 10.9669 14.4711 12.6485 14.1122L15.2861 11.4744C14.8635 11.4087 14.434 11.375 14 11.375C11.0742 11.375 8.33639 12.879 6.61876 15.3683C6.44971 15.6133 6.1523 15.7227 5.87895 15.7227C5.41406 15.7227 5.03125 15.3399 5.03125 14.8477C5.03125 14.6836 5.08594 14.4876 5.19671 14.3292C7.2429 11.4024 10.5 9.625 14 9.625C14.9415 9.625 15.8672 9.75565 16.7572 10.0044L18.826 7.93573C17.3091 7.3252 15.6768 7 14 7C9.76167 7 5.85891 9.05082 3.3327 12.5212C3.15192 12.7696 2.87105 12.9062 2.5977 12.9062C2.10543 12.9062 1.75 12.4961 1.75 12.0312C1.75 11.8399 1.80469 11.6679 1.9166 11.5135C4.75213 7.60156 9.1875 5.25 14 5.25C16.1677 5.25 18.2587 5.72155 20.1616 6.59982L23.0063 3.75628C23.348 3.41457 23.902 3.41457 24.2437 3.75628ZM13.9863 18.375C15.4156 18.375 16.625 19.5781 16.625 21.0273C16.625 22.4492 15.4156 23.625 13.9863 23.625C12.557 23.625 11.375 22.4492 11.375 21.0273C11.375 19.5781 12.557 18.375 13.9863 18.375ZM13.9861 20.125C13.5139 20.125 13.125 20.5349 13.125 21.0273C13.125 21.4922 13.5139 21.875 13.9861 21.875C14.4583 21.875 14.875 21.4922 14.875 21.0273C14.875 20.5351 14.4583 20.125 13.9861 20.125ZM16.9749 14.7129C17.9749 15.2368 18.849 16.0205 19.5275 17.005C19.6328 17.1577 19.6875 17.3086 19.6875 17.4727C19.6875 17.7461 19.5234 18.0399 19.2796 18.2141C19.1307 18.3203 18.9766 18.375 18.8125 18.375C18.5117 18.375 18.2408 18.2109 18.0731 17.9656C17.4594 17.0674 16.6165 16.3962 15.6562 16.0319L16.9749 14.7129ZM20.085 11.6037C21.1121 12.3369 22.0255 13.2557 22.7759 14.3292C22.8867 14.4876 22.9415 14.6836 22.9415 14.8477C22.9415 15.3399 22.5312 15.7227 22.0938 15.7227C21.8203 15.7227 21.5369 15.6133 21.3599 15.364C20.6483 14.3618 19.7851 13.5192 18.8181 12.8704L20.085 11.6037ZM23.206 8.48179C24.2822 9.34145 25.2517 10.358 26.0837 11.5134C26.1953 11.6685 26.25 11.8399 26.25 12.0312C26.25 12.4961 25.8946 12.9062 25.4023 12.9062C25.129 12.9062 24.8481 12.7696 24.6673 12.5212C23.8871 11.4494 22.973 10.513 21.9581 9.73063L23.206 8.48179Z" fill="#1A1C1F"/>
</g>
<defs>
<clipPath id="clip0_187_656">
<rect width="28" height="28" fill="white"/>
</clipPath>
</defs>
</svg>

<svg xmlns="http://www.w3.org/2000/svg" width="28" height="28" fill="none"><g clip-path="url(#a)"><path fill="#1A1C1F" fill-rule="evenodd" d="M24.244 3.756a.87.87 0 0 1 0 1.238 54082 54082 0 0 1-19.25 19.25.875.875 0 0 1-1.238 0 .884.884 0 0 1 0-1.238q2.421-2.425 4.847-4.846a.92.92 0 0 1-.318-.687c0-.164.055-.315.16-.468 1.034-1.5 2.522-2.534 4.204-2.893l2.637-2.638A8.4 8.4 0 0 0 14 11.375c-2.926 0-5.664 1.504-7.381 3.993-.17.245-.467.355-.74.355a.86.86 0 0 1-.848-.875.94.94 0 0 1 .166-.519C7.243 11.402 10.5 9.625 14 9.625c.941 0 1.867.13 2.757.38l2.069-2.07A12.9 12.9 0 0 0 14 7C9.762 7 5.859 9.05 3.333 12.521a.92.92 0 0 1-.735.385c-.493 0-.848-.41-.848-.875q0-.286.167-.518C4.752 7.603 9.187 5.25 14 5.25c2.168 0 4.259.472 6.162 1.35l2.844-2.844a.875.875 0 0 1 1.238 0M13.986 18.375c1.43 0 2.639 1.203 2.639 2.652 0 1.422-1.21 2.598-2.639 2.598s-2.611-1.176-2.611-2.598c0-1.449 1.182-2.652 2.611-2.652m0 1.75c-.472 0-.861.41-.861.902 0 .465.389.848.861.848s.889-.383.889-.848a.91.91 0 0 0-.889-.902m2.989-5.412a7.14 7.14 0 0 1 2.552 2.292c.106.153.16.304.16.468 0 .273-.164.567-.407.741a.8.8 0 0 1-.468.161.9.9 0 0 1-.739-.41 5.16 5.16 0 0 0-2.417-1.933zm3.11-3.11a11.3 11.3 0 0 1 2.69 2.726.94.94 0 0 1 .167.519c0 .492-.41.875-.848.875a.89.89 0 0 1-.734-.359 9.9 9.9 0 0 0-2.542-2.494zm3.121-3.121a15.4 15.4 0 0 1 2.878 3.031.86.86 0 0 1 .166.518c0 .465-.355.875-.848.875a.92.92 0 0 1-.735-.385 13.7 13.7 0 0 0-2.709-2.79z" clip-rule="evenodd"/></g><defs><clipPath id="a"><path fill="#fff" d="M0 0h28v28H0z"/></clipPath></defs></svg>
